X:1
T: The Fallen Hero
C:Nathaniel Gow
R:Strathspey
Q: 128
K:A
M:4/4
L:1/16
|:c3B A2F2 EC3 E4|E3F A2dc B3A B4|c3B A2F2 EC3 E4|E3F A2dc c2B2 A4|
c3B A2F2 EC3 E4|E3F A2dc B3A B4|c3B A2F2 EC3 E4|E3F A2dc c2B2 A4|
ce3 e3f e2c2 e4|ce3 e3f fecA B4|ce3 e3f e2c2 e4|E4 dcBA c2B2 A4|
ce3 e3f e2c2 e4|ce3 a3f fecA B4|c3B A2F2 E2C2 E4|E3F A2dc c2B2 A4:|
